trunk/public/assets/images/icons/black/move_left/info-circle.svg

<svg width="16" height="16" xmlns="http://www.w3.org/2000/svg" viewBox="0 0 16 16" shape-rendering="geometricPrecision"><defs><mask id="a"><rect fill="#fff" width="100%" height="100%"/><path d="M16.383 1.058l-2.47-2.473-4.51 4.512 4.51 4.506 2.47-2.47-2.035-2.038z"/></mask></defs><path fill="#cb1800" d="M12.935 3.095l2.035-2.037L13.913 0l-3.096 3.097 3.096 3.092 1.057-1.057"/><path d="M8 1C4.134 1 1 4.137 1 8.005 1.004 11.867 4.135 15 8 15c3.867 0 7-3.133 7-6.996C15 4.136 11.868 1 8 1zm0 12.585c-3.083-.006-5.577-2.5-5.583-5.58.006-3.087 2.5-5.582 5.583-5.588 3.084.006 5.578 2.5 5.585 5.587-.007 3.08-2.5 5.575-5.585 5.58zm.127-8.26c.554 0 1-.458 1-1.02 0-.566-.446-1.024-1-1.024-.553 0-1 .46-1 1.025 0 .562.447 1.02 1 1.02zm.987 1.05H6.118v.76H7.1v4.08h-.985v1.014H10.1v-1.016h-.986v-4.84z" mask="url(#a)"/></svg>

<?xml version="1.0"?><!DOCTYPE svg PUBLIC "-//W3C//DTD SVG 1.1//EN" "http://www.w3.org/Graphics/SVG/1.1/DTD/svg11.dtd"><svg width="16px" height="16px" xmlns="http://www.w3.org/2000/svg" viewBox="0 0 16 16" shape-rendering="geometricPrecision" fill="#000"><defs><mask id="move_left-path"><rect fill="#fff" width="100%" height="100%"/><polygon points="16.383,1.058 13.913,-1.415 9.403,3.097 13.914,7.603 16.383,5.134 14.348,3.095 " fill="#000"/></mask></defs><polygon points="12.935,3.095 14.97,1.058 13.913,0 10.817,3.097 13.913,6.189 14.97,5.133 " fill="#cb1800"/><g mask="url(#move_left-path)"><path d="M8,1.001c-3.866,0-6.999,3.135-6.999,7.003C1.003,11.867,4.134,14.999,8,15.001 c3.867-0.002,7.001-3.134,7.001-6.997C15.001,4.136,11.867,1.001,8,1.001z M8,13.585c-3.083-0.006-5.577-2.5-5.583-5.581 C2.423,4.918,4.917,2.423,8,2.417c3.084,0.006,5.578,2.501,5.585,5.587C13.578,11.085,11.084,13.579,8,13.585z M8.127,5.326 c0.554,0,1-0.459,1-1.021c0-0.566-0.446-1.024-1-1.024c-0.553,0-1.001,0.458-1.001,1.024C7.126,4.867,7.574,5.326,8.127,5.326z M9.114,6.375H6.118v0.761h0.982v4.078H6.115v1.015h3.986v-1.015H9.114V6.375z"/></g></svg>
